X: 2
T: Creche, The
Z: James Tween
S: https://thesession.org/tunes/10673#setting30836
R: slip jig
M: 9/8
L: 1/8
K: Gmaj
|:(3GGG G GAB ABc|(3BBB B Bcd cd^d|edc gec Bcd|cBA F/G/AF DEF|
(3GGG G GAB ABc|(3BBB B Bcd cd^d|edc gec Bcd|cBA F/G/AF G3:|
|G3 G3 F3|A3 (G3 G2) g|fed cBA Bcd|cBA F/2G/2AF DEF|
[1 G3 G3 F3|A3 (G3 G2) g|fed cBA Bcd|cBA F/2G/2AF G3:|
[2 (3GGG G GAB ABc|(3BBB B Bcd cd^d|edc gec Bcd|cBA F/G/AF G3||
